storage/app/icons/phosphoricons/fill/shopping-bag-open-fill.svg

<svg xmlns="http://www.w3.org/2000/svg" fill="currentColor" viewBox="0 0 256 256"><path d="M216 40H40a16 16 0 0 0-16 16v144a16 16 0 0 0 16 16h176a16 16 0 0 0 16-16V56a16 16 0 0 0-16-16m-88 120a48.05 48.05 0 0 1-48-48 8 8 0 0 1 16 0 32 32 0 0 0 64 0 8 8 0 0 1 16 0 48.05 48.05 0 0 1-48 48M40 72V56h176v16Z"/></svg>

<svg xmlns="http://www.w3.org/2000/svg" viewBox="0 0 256 256" fill="currentColor"><path d="M216,40H40A16,16,0,0,0,24,56V200a16,16,0,0,0,16,16H216a16,16,0,0,0,16-16V56A16,16,0,0,0,216,40ZM128,160a48.05,48.05,0,0,1-48-48,8,8,0,0,1,16,0,32,32,0,0,0,64,0,8,8,0,0,1,16,0A48.05,48.05,0,0,1,128,160ZM40,72V56H216V72Z"/></svg>
